!!!ONB: MCCC : ICD0010_00 : Extracted Monophonic Melody
!!!COM: Debussy, Claude
!!!OTL: Berceuse héroïque
!!!SCT: CD 140 ; L.132
!!!ODT: 1914///
**kern
*staff1
=1
*clefG2
*k[b-e-a-d-g-c-]
*G-:
*M2/2
4BB-
4AA-
4FF
4AA-
=2
4C-
4D-
4E-
4C-
=3
4F
8E-
8E-
4C-
4G-
=4
4F
8E-
8E-
4A-
4B-
=5
2A-
2F
=6
2G-
2F
=7
2A-
2F
=8
2G-
2E-
=9
1r
=10
1r
=11
4f
4e-
4B-
4g-
=12
4f
8e-
8d-
2B-[
=13
4B-]
4d-
4f-
4e-
=14
4c
4e-
2g-[
=15
4g-]
4a-
4a-
4b-
=16
4g-
4a-
4a-
4b-
=17
4.cc
8dd-
4cc
8b-
8a-
=18
4ee-
4b-
4dd-
4a-
=19
4.cc
8dd-
4cc
8b-
8a-
=20
4cc-
4f
2a-
=21
8r
24f
24f
24f
16.f
32cc
8r
4.cc
24cc
24cc
24ff
=22
8cc
16f
16cc
4r
2f
=23
8r
24f
24f
24f
16.f
32cc
8r
4.cc
24cc
24cc
24ff
=24
8cc
16f
16cc
4f
2r
=25
4A-
4F-
4G-
4D[
=26
4D]
4F-
4A-
4B--
=27
4B-
4G-
4A-
4F-[
=28
4F-]
4F
4A
4B-
=29
4c-
4A-
4B-
4G
=30
2B--
4G-
4B--
=31
4d
4c-
4d-
4B-
=32
4c
4c
2c
=33
4f-
4c
2f-
=34
2f-
2c
=35
1c
=36
1c
=37
1c
=38
1c[
=39
2c]
2r
=40
4.c
8c
8c
8c
4c
=41
4d
8.d
16d
8.d
32f-
32d
8.c[
16c]
=42
1c
=43
1c
=44
1c
=45
1c
=46
1c
=47
1c
=48
1c
=49
4f
4e-
4c
4g-
=50
4f
8e-
8d-
2c
=51
4c
4d-
4f-
4e-
=52
4c
4e-
2g-[
=53
4g-]
4a-
4a-
4b-
=54
4g-
4a-
4a-
4b-
=55
4.cc
8dd-
4cc
8b-
8a-
=56
4ee-
4b-
4dd-
4a-
=57
2r
2cc-
=58
2f
2a-
=59
4B-
4B-
2c-
=60
4B-
4B-
2c
=61
8r
24f
24f
24f
16.f
32cc
8r
4.cc
24cc
24cc
24ff
=62
8cc
16f
16cc
4r
2f
=63
8r
24f
24f
24f
16.f
32cc
8r
4.cc
24cc
24cc
24ff
=64
8cc
16f
16cc
4r
2f
=65
4r
12f
12f
12f
8.f
16cc
4cc
=66
1cc
=67
1bbb-[
=68
1bbb-]
=69
1r
=70
1r
=71
2b-
2r
==
*-
